P3
# Grayscale height map used by the domain shader.
8 8
255
20 20 20  35 35 35  60 60 60  85 85 85  85 85 85  60 60 60  35 35 35  20 20 20
35 35 35  70 70 70  110 110 110  145 145 145  145 145 145  110 110 110  70 70 70  35 35 35
60 60 60  110 110 110  165 165 165  205 205 205  205 205 205  165 165 165  110 110 110  60 60 60
85 85 85  145 145 145  205 205 205  250 250 250  250 250 250  205 205 205  145 145 145  85 85 85
85 85 85  145 145 145  205 205 205  250 250 250  250 250 250  205 205 205  145 145 145  85 85 85
60 60 60  110 110 110  165 165 165  205 205 205  205 205 205  165 165 165  110 110 110  60 60 60
35 35 35  70 70 70  110 110 110  145 145 145  145 145 145  110 110 110  70 70 70  35 35 35
20 20 20  35 35 35  60 60 60  85 85 85  85 85 85  60 60 60  35 35 35  20 20 20

